X:6286
T:Stenselepolskan
O:england
Q:1/4=110
M:3/4
R:Polska
L:1/16
A:V\"asterbotten
K:Gm
"Gm"D2B2 B2AB (cB)AG|"F"F2A2 A2GA (BA)GF|\
"Cm"E2EF G2GA B2AG|"D7"(^FG)AF "Gm"G2D2  B,CB,A,|
"Gm"G,2B2 B2AB (cB)AG|"F"F2A2 A2GA (BA)GF|\
"Cm"E2EF G2GA B2AG|"D7"(^FG)AF "Gm"G8::
"Gm"D2d2 d2^cd (e2d2)|"D7"D2c2 c2Bc (dc)BA|\
"Gm"(G^F)GA (BA)Bc d2d2|"A"^c2Ac "D7"d8|
"Gm"D2d2 d2^cd (e2d2)|"D7"D2c2 c2Bc (dc)BA|\
"Gm"(G^F)GA (BA)Bc (d^c)de|d2^F2 G8:|


